X:2430590
%%pagescale .9
T:Frankie's Kolomejka
C:Frankie Rodgers
S:Frankie Rodgers & Gaby Haas, $2Play for a Horilka Party.$0 Point Records, PS 302, 1968.
H:As played by  Frankie Rodgers.
H:So how did Frankie Rodgers come to write a kolomejka? In 2002 Albert Brien had a
H:concert/workshop in the Fiddler's Loft in Kingston, NH with British Colombia fiddler
H:Yvonne Hernandez. She played the tune and taught it during the workshop. I asked her
H:that question. Her mother, who was in the audience called out that despite his name,
H:Frankie was of Ukrainian background.
N:From NH Country Dance (URL below), along with many New England, Canadian & Swedish
N:tunes, and resources for abc notation and New England traditional music and dance.
%
N: Note #1: To preserve formatting (font, spacing, etc.), use the
N: file header at the URL below; just follow accompanying instructions.
%
N: Note #2: This abc code is optimized for use with abcm2ps, which is used by
N: EasyABC and other abc apps. To abc2svg for display or printing look to see if there
N: is a file optimized for abc2svg. If not you may need to adjust the spacing in places.
%
Z:abc-transcription Peter Yarensky. I rely heavily on careful listening to the
Z:named sources aided by software to hear details. While not perfect, known
Z:substantial differences from other written sources receive careful attention.
Z:abc-copyright Peter Yarensky. You may reproduce this tune freely but
Z:please include the entire abc file including all the notes.
%%writefields HQSD
U:s = !slide!
U:t = !trill!
F:Tunes Home Page - https://fiddle-tunes.nhcountrydance.com/
F:abc Header & its Usage - https://fiddle-tunes.nhcountrydance.com/header-page/
M:C|
L:1/8
R:Polka
G:Other Tunes ~ Ukrainian
N: Tune Tags ~ Kolomejka, Ukrainian, Frankie Rodgers
%%microscale 4
K:C
%%textfont Palatino-Italic 14
%%text The "C" in the middle of the D part is a quarter tone sharp.
%%textfont Palatino-Roman 16
[P:A] (3EF^F|:\
"C" G2c2 e2de | "F" d2f2fagf | "C" e2c2 cBc^c     | "G7" d2z2 G2(3EF^F       |
"C" G2c2 e2de | "F" d2f2fagf | "C" e2c2 "G7" dcBd |1 "C" [ce]4 [ce]2 (3EF^F :|2 "C" [ce]4 [ce]3 ||
[P:B] |: (& e- & se- &) |\
"C" (& e2x2 x4 & e2g2 gage &))     | "F" f2a2 agfd  | "C" e2g2 gfeg        | "G7" f4 d3g/f/ |
"C" e2c2 cdcA     | "G7" Bcd2 dedc | "G7" B2G2 A2B2 |  "C" c2z2  "F" [cf]4 |
"C" {gf}e2c2 cdcA | "G7" Bcd2 dedc | "G7" B2G2 A2B2 | "C" [ce]4 [ce]3     :|
[P:C] |: (& e- & se- &) |\
"C" (& e2x2 x4 & e2e2 "F" f2f2 &) | "C" e2e2 "F" f3g/f/ | "C" e2e2 "F" fefa | "G7" gzz2 "^\"Hey!\"" z4 |
"C" {agf}e2e2 "F" f2f2            | "C" e2e2 "F" f3g/f/ | "C" e2c2 "G" dcBd |1 "C" [ce]4 [ce]3 :|2 "C" c4 "E7" [Be]4 ||
[P:D] |: y"Am" (& se2e2 se2e2 & e2e2 e2e2 &) | "Am" c/d/c[Ae]2 [Ae]2>f2 | "E7" e2^g2^f2g2 | "Am" a2>b2 ^1c'baa |
"Am" (& xee2 xee2 & (de)e2 (de)e2 &)         | "Am" c/d/c[Ae]2 [Ae]2>f2 | "E7" e2^g2^fege \
|1 "Am" (& x4 x3e  &aecB A2[^de-]e- &)      :|2 "Am" a2z2 "(rest)"^F4   |]

